localPackages/DesignSystem/Sources/DesignSystem/Resources/Assets.xcassets/IconSet/ic-arrow-up.imageset/ic-arrow-up.svg

<svg width="24" height="24" viewBox="0 0 24 24" fill="none" xmlns="http://www.w3.org/2000/svg">
<g id="ic-arrow-up">
<path id="Icon" fill-rule="evenodd" clip-rule="evenodd" d="M3.21882 12.4719C3.51273 12.7638 3.9876 12.7622 4.27948 12.4683L11.2473 5.452L11.2473 20.2471C11.2473 20.6613 11.5831 20.9971 11.9973 20.9971C12.4115 20.9971 12.7473 20.6613 12.7473 20.2471L12.7473 5.452L19.7152 12.4683C20.007 12.7622 20.4819 12.7638 20.7758 12.4719C21.0697 12.1801 21.0714 11.7052 20.7795 11.4113L12.7409 3.31681C12.5763 3.15112 12.3704 3.05191 12.1563 3.0192C12.1051 3.00814 12.0519 3.00232 11.9973 3.00232C11.9428 3.00232 11.8896 3.00814 11.8383 3.0192C11.6242 3.05191 11.4183 3.15112 11.2538 3.31681L3.21515 11.4113C2.92327 11.7052 2.92492 12.1801 3.21882 12.4719Z" fill="#0F0F0F"/>
</g>
</svg>

<svg xmlns="http://www.w3.org/2000/svg" width="24" height="24" viewBox="0 0 24 24">
  <g class="ic-arrow-up">
    <path fill-rule="evenodd" d="M3.218 12.472a.75.75 0 0 0 1.06-.004l6.968-7.016v14.795a.75.75 0 1 0 1.5 0V5.452l6.968 7.016a.75.75 0 0 0 1.064-1.057L12.74 3.316a1.044 1.044 0 0 0-.585-.297.754.754 0 0 0-.318 0c-.214.033-.42.132-.585.297l-8.038 8.095a.75.75 0 0 0 .004 1.06Z" class="Icon"/>
  </g>
</svg>
